icons/svg/key-variant.svg

﻿<?xml version="1.0" encoding="utf-8"?>
<!DOCTYPE svg PUBLIC "-//W3C//DTD SVG 1.1//EN" "http://www.w3.org/Graphics/SVG/1.1/DTD/svg11.dtd">
<svg xmlns="http://www.w3.org/2000/svg" xmlns:xlink="http://www.w3.org/1999/xlink" version="1.1" baseProfile="full" width="24" height="24" viewBox="0 0 24.00 24.00" enable-background="new 0 0 24.00 24.00" xml:space="preserve">
	<path fill="#000000" fill-opacity="1" stroke-linejoin="round" d="M 22,18L 22,22L 18,22L 18,19L 15,19L 15,16L 12,16L 9.74293,13.7429C 9.19135,13.9101 8.60617,14 8,14C 4.68629,14 2,11.3137 2,8C 2,4.68629 4.68629,2 8,2C 11.3137,2 14,4.68629 14,8C 14,8.60617 13.9101,9.19135 13.7429,9.74293L 22,18 Z M 7,5C 5.89543,5 5,5.89543 5,7C 5,8.10457 5.89543,9 7,9C 8.10457,9 9,8.10457 9,7C 9,5.89543 8.10457,5 7,5 Z "/>
</svg>

<svg xmlns="http://www.w3.org/2000/svg" version="1.1" baseProfile="full" width="24" height="24" viewBox="0 0 24.00 24.00" xml:space="preserve"><path fill="#000" fill-opacity="1" stroke-linejoin="round" d="M22 18v4h-4v-3h-3v-3h-3l-2.257-2.257C9.19 13.91 8.606 14 8 14c-3.314 0-6-2.686-6-6s2.686-6 6-6 6 2.686 6 6c0 .606-.09 1.19-.257 1.743L22 18zM7 5c-1.105 0-2 .895-2 2s.895 2 2 2 2-.895 2-2-.895-2-2-2z"/></svg>
